svg/fluentui-system-icons/ic_fluent_document_java_20_regular.svg

<svg width="20" height="20" viewBox="0 0 20 20" fill="none" xmlns="http://www.w3.org/2000/svg">
<path d="M6 2C4.89543 2 4 2.89543 4 4V11.0855C4.5826 11.2914 5 11.847 5 12.5001V4C5 3.44772 5.44772 3 6 3H10V6.5C10 7.32843 10.6716 8 11.5 8H15V11.6707C15.228 11.327 15.5899 11.0901 16 11.0209V7.41421C16 7.01639 15.842 6.63486 15.5607 6.35355L11.6464 2.43934C11.3651 2.15804 10.9836 2 10.5858 2H6ZM14.7929 7H11.5C11.2239 7 11 6.77614 11 6.5V3.20711L14.7929 7ZM11.75 18.0001C11.9625 18.0001 12.1517 17.8659 12.2219 17.6653L13.9719 12.6653C14.0632 12.4047 13.9258 12.1194 13.6652 12.0282C13.4045 11.937 13.1193 12.0743 13.0281 12.335L11.75 15.9866L10.4719 12.335C10.3807 12.0743 10.0955 11.937 9.83482 12.0282C9.57419 12.1194 9.43685 12.4047 9.52807 12.6653L11.2781 17.6653C11.3483 17.8659 11.5375 18.0001 11.75 18.0001ZM16.7219 12.335C16.6517 12.1344 16.4625 12.0001 16.25 12.0001C16.0375 12.0001 15.8483 12.1344 15.7781 12.335L14.0281 17.335C13.9368 17.5956 14.0742 17.8808 14.3348 17.9721C14.5955 18.0633 14.8807 17.926 14.9719 17.6653L15.2047 17.0001H17.2953L17.5281 17.6653C17.6193 17.926 17.9045 18.0633 18.1652 17.9721C18.4258 17.8808 18.5632 17.5956 18.4719 17.335L16.7219 12.335ZM16.9453 16.0001H15.5547L16.25 14.0137L16.9453 16.0001ZM3.5 12.0003C3.77614 12.0003 4 12.2241 4 12.5003V16.5003C4 17.3287 3.32843 18.0003 2.5 18.0003C1.67157 18.0003 1 17.3287 1 16.5003V16.0003C1 15.7241 1.22386 15.5003 1.5 15.5003C1.77614 15.5003 2 15.7241 2 16.0003V16.5003C2 16.7764 2.22386 17.0003 2.5 17.0003C2.77614 17.0003 3 16.7764 3 16.5003V12.5003C3 12.2241 3.22386 12.0003 3.5 12.0003ZM7.25 12.0003C7.46247 12.0003 7.65174 12.1345 7.72193 12.3351L9.47193 17.3351C9.56315 17.5957 9.42581 17.881 9.16518 17.9722C8.90454 18.0634 8.61929 17.9261 8.52807 17.6654L8.29521 17.0001H6.20479L5.97193 17.6654C5.88071 17.9261 5.59546 18.0634 5.33482 17.9722C5.07419 17.881 4.93685 17.5957 5.02807 17.3351L6.77807 12.3351C6.84826 12.1345 7.03753 12.0003 7.25 12.0003ZM7.25 14.0138L6.55479 16.0001H7.94521L7.25 14.0138Z" fill="#212121"/>
</svg>

<svg xmlns="http://www.w3.org/2000/svg" width="20" height="20"><path d="M6 2a2 2 0 0 0-2 2v7.085A1.5 1.5 0 0 1 5 12.5V4a1 1 0 0 1 1-1h4v3.5A1.5 1.5 0 0 0 11.5 8H15v3.67c.228-.343.59-.58 1-.65V7.415a1.5 1.5 0 0 0-.44-1.06L11.646 2.44a1.5 1.5 0 0 0-1.06-.44H6Zm8.793 5H11.5a.5.5 0 0 1-.5-.5V3.207L14.793 7ZM11.75 18a.5.5 0 0 0 .472-.335l1.75-5a.5.5 0 1 0-.944-.33l-1.278 3.652-1.278-3.652a.5.5 0 1 0-.944.33l1.75 5a.5.5 0 0 0 .472.335Zm4.972-5.665a.5.5 0 0 0-.944 0l-1.75 5a.5.5 0 1 0 .944.33l.233-.665h2.09l.233.665a.5.5 0 1 0 .944-.33l-1.75-5ZM16.945 16h-1.39l.695-1.986.695 1.986ZM3.5 12a.5.5 0 0 1 .5.5v4a1.5 1.5 0 0 1-3 0V16a.5.5 0 1 1 1 0v.5a.5.5 0 0 0 1 0v-4a.5.5 0 0 1 .5-.5Zm3.75 0a.5.5 0 0 1 .472.335l1.75 5a.5.5 0 1 1-.944.33L8.295 17h-2.09l-.233.665a.5.5 0 1 1-.944-.33l1.75-5A.5.5 0 0 1 7.25 12Zm0 2.014L6.555 16h1.39l-.695-1.986Z"/></svg>
